X:112 
T:Lord Mounteagle's (reel) 
S:Bogue MS
F:file ID: cre.4/112lord_m
B:CRE4.131 (RÃÂÃÂÃÂÃÂ­l Thiarna Dhroim an Fhiolair - no repeats)
Q:180
L:1/8
M:4/4
R:reel
K:D
A|D2AF Dgfe|dBAF GEEF|D2AF D3B|Acde fdd2|
D2 AF Dgfe|dBAF GEEF|D2 AF D3B|Acde fdd:|
|:g|fdef gfed|cAeA fAeA|fdef gfed|defg fdd2|
fedc dcBA|GBAF GEEF|D2 FA D3B|1 Acde fdd:|\
[2 Acde fdd2-|d8|]

%%%

